X:1
T:Paddy Ryan's Dream
S:Paul O'Shaughnessy
Z:Juergen.Gier@post.rwth-aachen.de
M:C|
L:1/8
K:A
ed|cA~A2 cAB=G|E=GDB, =CEDB,|=CA,A,=G, A,B,CD|~E2AE GBed|\
cA~A2 cAB=G|E=GDB, =CEDB,|=CA,A,=G, A,B,CD|EAGB A2::fg|\
agae ceAf|=gfgd BFGB|Aaae ceAc|B=GED CEAa|\
agae ceAf|=gfgd BFGB|cBcd edcB|Aagb ae:|
